X: 18
U:~=!turn!
U:k=!crescendo(!
U:n=!crescendo)!
U:m=!diminuendo(!
U:p=!diminuendo)!
M:C
L:1/8
K:D
!p!A !segno!| d/d/d (AG FG) .A.c | B/B/B (ed) .c.A.A.c | d/d/d (AF) GA Bd | cdec dDDA | d/d/d (AG) .F.G .A.d |
LfDFA dfaf | efga fddg | fDFA dfaf | eEGB efga | mbagf edcB | AGFE pDkABnc !segno!|]


